X: 4
T: The Morning Star
R: reel
M: 4/4
L: 1/8
K: Emin
~B3A BEEA|Bdef gfed|~B3A BEEF|GBAF GEEA:|Bdef g2eg|fedf edBA|Bdef gbge|fafd ~e3d|Bdef gfeg|fedf efgd|~B3A BEEF|GBAF GEEA||


Tune 828	Setting 13984

